X: 30841
T: Our Trip To Toronto
R: reel
M: 4/4
K: Adorian
|:EAcA AGEG|A2 EA (3Bcd ea|gedB ABGA|EAAG ABcd|
eA A2 BAGE|G3A (3Bcd eg|aged BG G2|ABde BA A2:|
|:ea a2 bage|g2 dB GA (3Bcd|eaag eage|dBGA Bged|
c3A BAAG|A2 EA cdeg|aged BG G2|ABde BA A2:|

